assets/idg-logo.svg

<svg fill="none" height="37" viewBox="0 0 97 37" width="97" xmlns="http://www.w3.org/2000/svg"><path d="m63.5358 7.15118c-3.3849-4.35087-8.6692-7.15118-14.6088-7.15118-6.0892 0-11.4893 2.94153-14.8601 7.48162 2.2849 3.07708 3.6377 6.88848 3.6377 11.01628 0 4.1277-1.3528 7.9391-3.6377 11.0162 3.3708 4.5401 8.7723 7.4817 14.8601 7.4817 5.9396 0 11.2239-2.8003 14.6088-7.1512-2.4373-3.1336-3.889-7.0707-3.889-11.3481-.0015-4.2746 1.4517-8.2117 3.889-11.34532z" fill="#808283"/><path d="m78.1449.00146484c-5.9395 0-11.2238 2.80031516-14.6088 7.15117516 2.4374 3.13356 3.8891 7.07066 3.8891 11.34816 0 4.2774-1.4517 8.2145-3.8891 11.3481 3.385 4.3508 8.6693 7.1511 14.6088 7.1511 10.217 0 18.4979-8.2823 18.4979-18.4978 0-10.21559-8.2823-18.50073516-18.4979-18.50073516z" fill="#00c2f3"/><path d="m63.5361 7.15137c-2.4374 3.13353-3.8891 7.07073-3.8891 11.34813s1.4517 8.2145 3.8891 11.3481c2.4373-3.1336 3.889-7.0707 3.889-11.3481s-1.4517-8.2146-3.889-11.34813z" fill="#77b1ca"/><path d="m34.0656 7.48309c-3.3709-4.5401-8.7724-7.48162516-14.8602-7.48162516-10.21698 0-18.49788 8.28231516-18.49788 18.49783516 0 10.2156 8.28232 18.4979 18.49788 18.4979 6.0892 0 11.4893-2.9415 14.8602-7.4816-2.2849-3.0771-3.6378-6.8885-3.6378-11.0163 0-4.1277 1.3529-7.9391 3.6378-11.01621z" fill="#f7941d"/><path d="m34.0655 7.48291c-2.2849 3.07709-3.6378 6.88849-3.6378 11.01629 0 4.1277 1.3529 7.9391 3.6378 11.0162 2.2848-3.0771 3.6377-6.8885 3.6377-11.0162 0-4.1278-1.3529-7.9392-3.6377-11.01629z" fill="#cc985d"/><g fill="#fff"><path d="m78.461 17.5093h8.1566v.8798c0 2.4416-.7894 4.461-2.3696 6.0567-1.6776 1.6777-3.6801 2.5151-6.0073 2.5151-2.3936 0-4.3876-.8021-5.9833-2.4049-1.5958-1.6043-2.3936-3.6109-2.3936-6.0201 0-2.4261.7936-4.4483 2.3809-6.0694 1.5872-1.6198 3.5784-2.4304 5.9706-2.4304 1.3189 0 2.5475.2683 3.6871.8064 1.1396.538 2.1084 1.3105 2.9063 2.3202l-2.5151 1.9784c-1.1396-1.3514-2.4755-2.0265-4.0049-2.0265-1.4333 0-2.6294.5169-3.5897 1.5506s-1.4404 2.3244-1.4404 3.8707c0 1.5139.4928 2.7933 1.4771 3.834.9843 1.0422 2.1945 1.5633 3.6264 1.5633 1.5139 0 2.7269-.5451 3.6392-1.6367.4236-.4886.7569-1.1721 1.0012-2.0519h-4.5429v-2.7353z"/><path d="m20.8898 10.354v16.2893h-3.3454v-16.2893z"/><path d="m42.6895 26.6433v-16.2893h4.6163c2.5405 0 4.4935.603 5.8619 1.8076 1.7101 1.5138 2.5645 3.5657 2.5645 6.1542 0 1.3189-.2246 2.5362-.6722 3.6504-.4477 1.1156-1.0874 2.0476-1.9177 2.7961-1.384 1.254-3.265 1.881-5.6416 1.881zm3.3454-13.5779v10.8185h.6354c1.6763 0 2.9557-.3742 3.834-1.1241 1.2216-1.0421 1.8316-2.491 1.8316-4.3466 0-1.6282-.4604-2.926-1.3797-3.8947-.9193-.9688-2.1535-1.4531-3.6998-1.4531z"/></g></svg>

<svg width="97" height="37" viewBox="0 0 97 37" fill="none" xmlns="http://www.w3.org/2000/svg">
<path d="M63.5358 7.15118C60.1509 2.80031 54.8666 0 48.927 0C42.8378 0 37.4377 2.94153 34.0669 7.48162C36.3518 10.5587 37.7046 14.3701 37.7046 18.4979C37.7046 22.6256 36.3518 26.437 34.0669 29.5141C37.4377 34.0542 42.8392 36.9958 48.927 36.9958C54.8666 36.9958 60.1509 34.1955 63.5358 29.8446C61.0985 26.711 59.6468 22.7739 59.6468 18.4965C59.6453 14.2219 61.0985 10.2848 63.5358 7.15118Z" fill="#808283"/>
<path d="M78.1449 0.00146484C72.2054 0.00146484 66.9211 2.80178 63.5361 7.15264C65.9735 10.2862 67.4252 14.2233 67.4252 18.5008C67.4252 22.7782 65.9735 26.7153 63.5361 29.8489C66.9211 34.1997 72.2054 37 78.1449 37C88.3619 37 96.6428 28.7177 96.6428 18.5022C96.6428 8.28661 88.3605 0.00146484 78.1449 0.00146484Z" fill="#00C2F3"/>
<path d="M63.5361 7.15137C61.0987 10.2849 59.647 14.2221 59.647 18.4995C59.647 22.7769 61.0987 26.714 63.5361 29.8476C65.9734 26.714 67.4251 22.7769 67.4251 18.4995C67.4251 14.2221 65.9734 10.2849 63.5361 7.15137Z" fill="#77B1CA"/>
<path d="M34.0656 7.48309C30.6947 2.94299 25.2932 0.00146484 19.2054 0.00146484C8.98842 0.00146484 0.70752 8.28378 0.70752 18.4993C0.70752 28.7149 8.98984 36.9972 19.2054 36.9972C25.2946 36.9972 30.6947 34.0557 34.0656 29.5156C31.7807 26.4385 30.4278 22.6271 30.4278 18.4993C30.4278 14.3716 31.7807 10.5602 34.0656 7.48309Z" fill="#F7941D"/>
<path d="M34.0655 7.48291C31.7806 10.56 30.4277 14.3714 30.4277 18.4992C30.4277 22.6269 31.7806 26.4383 34.0655 29.5154C36.3503 26.4383 37.7032 22.6269 37.7032 18.4992C37.7032 14.3714 36.3503 10.56 34.0655 7.48291Z" fill="#CC985D"/>
<path d="M78.461 17.5093H86.6176V18.3891C86.6176 20.8307 85.8282 22.8501 84.248 24.4458C82.5704 26.1235 80.5679 26.9609 78.2407 26.9609C75.8471 26.9609 73.8531 26.1588 72.2574 24.556C70.6616 22.9517 69.8638 20.9451 69.8638 18.5359C69.8638 16.1098 70.6574 14.0876 72.2447 12.4665C73.8319 10.8467 75.8231 10.0361 78.2153 10.0361C79.5342 10.0361 80.7628 10.3044 81.9024 10.8425C83.042 11.3805 84.0108 12.153 84.8087 13.1627L82.2936 15.1411C81.154 13.7897 79.8181 13.1146 78.2887 13.1146C76.8554 13.1146 75.6593 13.6315 74.699 14.6652C73.7387 15.6989 73.2586 16.9896 73.2586 18.5359C73.2586 20.0498 73.7514 21.3292 74.7357 22.3699C75.72 23.4121 76.9302 23.9332 78.3621 23.9332C79.876 23.9332 81.089 23.3881 82.0013 22.2965C82.4249 21.8079 82.7582 21.1244 83.0025 20.2446H78.4596V17.5093H78.461Z" fill="white"/>
<path d="M20.8898 10.354V26.6433H17.5444V10.354H20.8898Z" fill="white"/>
<path d="M42.6895 26.6433V10.354H47.3058C49.8463 10.354 51.7993 10.957 53.1677 12.1616C54.8778 13.6754 55.7322 15.7273 55.7322 18.3158C55.7322 19.6347 55.5076 20.852 55.06 21.9662C54.6123 23.0818 53.9726 24.0138 53.1423 24.7623C51.7583 26.0163 49.8773 26.6433 47.5007 26.6433H42.6895ZM46.0349 13.0654V23.8839H46.6703C48.3466 23.8839 49.626 23.5097 50.5043 22.7598C51.7259 21.7177 52.3359 20.2688 52.3359 18.4132C52.3359 16.785 51.8755 15.4872 50.9562 14.5185C50.0369 13.5497 48.8027 13.0654 47.2564 13.0654H46.0349Z" fill="white"/>
</svg>
